packages/ffe-icons/icons/open/400/sm/keyboard_keys.svg

<svg xmlns="http://www.w3.org/2000/svg" height="20" viewBox="0 -960 960 960" width="20"><path d="M324-300q-15.3 0-25.65-10.289-10.35-10.29-10.35-25.5Q288-351 298.35-361.5 308.7-372 324-372h312q15.3 0 25.65 10.289 10.35 10.29 10.35 25.5Q672-321 661.65-310.5 651.3-300 636-300H324ZM192.211-588Q177-588 166.5-598.289q-10.5-10.29-10.5-25.5Q156-639 166.289-649.5q10.29-10.5 25.5-10.5Q207-660 217.5-649.711q10.5 10.29 10.5 25.5Q228-609 217.711-598.5q-10.29 10.5-25.5 10.5Zm144 0Q321-588 310.5-598.289q-10.5-10.29-10.5-25.5Q300-639 310.289-649.5q10.29-10.5 25.5-10.5Q351-660 361.5-649.711q10.5 10.29 10.5 25.5Q372-609 361.711-598.5q-10.29 10.5-25.5 10.5Zm144 0Q465-588 454.5-598.289q-10.5-10.29-10.5-25.5Q444-639 454.289-649.5q10.29-10.5 25.5-10.5Q495-660 505.5-649.711q10.5 10.29 10.5 25.5Q516-609 505.711-598.5q-10.29 10.5-25.5 10.5Zm144 0Q609-588 598.5-598.289q-10.5-10.29-10.5-25.5Q588-639 598.289-649.5q10.29-10.5 25.5-10.5Q639-660 649.5-649.711q10.5 10.29 10.5 25.5Q660-609 649.711-598.5q-10.29 10.5-25.5 10.5Zm144 0Q753-588 742.5-598.289q-10.5-10.29-10.5-25.5Q732-639 742.289-649.5q10.29-10.5 25.5-10.5Q783-660 793.5-649.711q10.5 10.29 10.5 25.5Q804-609 793.711-598.5q-10.29 10.5-25.5 10.5Zm0 144Q753-444 742.5-454.289q-10.5-10.29-10.5-25.5Q732-495 742.289-505.5q10.29-10.5 25.5-10.5Q783-516 793.5-505.711q10.5 10.29 10.5 25.5Q804-465 793.711-454.5q-10.29 10.5-25.5 10.5Zm-144 0Q609-444 598.5-454.289q-10.5-10.29-10.5-25.5Q588-495 598.289-505.5q10.29-10.5 25.5-10.5Q639-516 649.5-505.711q10.5 10.29 10.5 25.5Q660-465 649.711-454.5q-10.29 10.5-25.5 10.5Zm-144 0Q465-444 454.5-454.289q-10.5-10.29-10.5-25.5Q444-495 454.289-505.5q10.29-10.5 25.5-10.5Q495-516 505.5-505.711q10.5 10.29 10.5 25.5Q516-465 505.711-454.5q-10.29 10.5-25.5 10.5Zm-144 0Q321-444 310.5-454.289q-10.5-10.29-10.5-25.5Q300-495 310.289-505.5q10.29-10.5 25.5-10.5Q351-516 361.5-505.711q10.5 10.29 10.5 25.5Q372-465 361.711-454.5q-10.29 10.5-25.5 10.5Zm-144 0Q177-444 166.5-454.289q-10.5-10.29-10.5-25.5Q156-495 166.289-505.5q10.29-10.5 25.5-10.5Q207-516 217.5-505.711q10.5 10.29 10.5 25.5Q228-465 217.711-454.5q-10.29 10.5-25.5 10.5Z"/></svg>

<svg xmlns="http://www.w3.org/2000/svg" height="20" viewBox="0 -960 960 960" width="20"><path d="M324-300q-15.3 0-25.65-10.29Q288-320.58 288-335.79t10.35-25.71Q308.7-372 324-372h312q15.3 0 25.65 10.29Q672-351.42 672-336.21t-10.35 25.71Q651.3-300 636-300H324ZM192.21-588q-15.21 0-25.71-10.29t-10.5-25.5q0-15.21 10.29-25.71t25.5-10.5q15.21 0 25.71 10.29t10.5 25.5q0 15.21-10.29 25.71t-25.5 10.5Zm144 0q-15.21 0-25.71-10.29t-10.5-25.5q0-15.21 10.29-25.71t25.5-10.5q15.21 0 25.71 10.29t10.5 25.5q0 15.21-10.29 25.71t-25.5 10.5Zm144 0q-15.21 0-25.71-10.29t-10.5-25.5q0-15.21 10.29-25.71t25.5-10.5q15.21 0 25.71 10.29t10.5 25.5q0 15.21-10.29 25.71t-25.5 10.5Zm144 0q-15.21 0-25.71-10.29t-10.5-25.5q0-15.21 10.29-25.71t25.5-10.5q15.21 0 25.71 10.29t10.5 25.5q0 15.21-10.29 25.71t-25.5 10.5Zm144 0q-15.21 0-25.71-10.29t-10.5-25.5q0-15.21 10.29-25.71t25.5-10.5q15.21 0 25.71 10.29t10.5 25.5q0 15.21-10.29 25.71t-25.5 10.5Zm0 144q-15.21 0-25.71-10.29t-10.5-25.5q0-15.21 10.29-25.71t25.5-10.5q15.21 0 25.71 10.29t10.5 25.5q0 15.21-10.29 25.71t-25.5 10.5Zm-144 0q-15.21 0-25.71-10.29t-10.5-25.5q0-15.21 10.29-25.71t25.5-10.5q15.21 0 25.71 10.29t10.5 25.5q0 15.21-10.29 25.71t-25.5 10.5Zm-144 0q-15.21 0-25.71-10.29t-10.5-25.5q0-15.21 10.29-25.71t25.5-10.5q15.21 0 25.71 10.29t10.5 25.5q0 15.21-10.29 25.71t-25.5 10.5Zm-144 0q-15.21 0-25.71-10.29t-10.5-25.5q0-15.21 10.29-25.71t25.5-10.5q15.21 0 25.71 10.29t10.5 25.5q0 15.21-10.29 25.71t-25.5 10.5Zm-144 0q-15.21 0-25.71-10.29t-10.5-25.5q0-15.21 10.29-25.71t25.5-10.5q15.21 0 25.71 10.29t10.5 25.5q0 15.21-10.29 25.71t-25.5 10.5Z"/></svg>
